X: 63
T: Night the Whiskey Froze, The
C: J-24
C: Nick Appolonio  1981
M: 6/8
Z: Transcribed to abc by Mary Lou Knack
R: jig
K: D
F| "D"A2F DEF| "Em"G2F E2D| "A7"CDE A,B,C| "D"D2E F2G|
   "D"A2F DEF| "G"G2F E2D| "A7"CDE A,B,C| "D"D3 z2:|
|:\
F/G/| "D"A2d dcd| "Em"B2G E2D| "A7"CDE A,B,C| "D"D2E F2G|
      "D"A2d dcd| "G"B2G E2D| "A7"CDE A,B,C| "D"D3 z2:|
%%text 9/1/98
% ---------- page 32 ----------
